src/content/games/NineMensMorris/merel-mobius.svg

<?xml version="1.0" encoding="UTF-8" standalone="no"?><!DOCTYPE svg PUBLIC "-//W3C//DTD SVG 1.1//EN" "http://www.w3.org/Graphics/SVG/1.1/DTD/svg11.dtd"><svg width="100%" height="100%" viewBox="0 0 1400 1400" version="1.1" xmlns="http://www.w3.org/2000/svg" xmlns:xlink="http://www.w3.org/1999/xlink" xml:space="preserve" xmlns:serif="http://www.serif.com/" style="fill-rule:evenodd;clip-rule:evenodd;stroke-linecap:round;stroke-linejoin:round;stroke-miterlimit:1.5;"><path d="M900,500l400,0l0,800l-1200,0l0,-1200l800,0l0,400Z" style="fill:none;stroke:#000;stroke-width:8.03px;"/><rect x="300" y="300" width="800" height="800" style="fill:none;stroke:#000;stroke-width:8.03px;"/><rect x="500" y="500" width="400" height="400" style="fill:none;stroke:#000;stroke-width:8.03px;"/><path d="M700,100l0,400" style="fill:none;stroke:#000;stroke-width:8.03px;"/><path d="M900,700l400,0" style="fill:none;stroke:#000;stroke-width:8.03px;"/><path d="M700,900l0,400" style="fill:none;stroke:#000;stroke-width:8.03px;"/><path d="M500,700l-400,0" style="fill:none;stroke:#000;stroke-width:8.03px;"/><circle cx="700" cy="100" r="20" style="fill:#ebebeb;stroke:#000;stroke-width:8.03px;"/><circle cx="1300" cy="500" r="20" style="fill:#ebebeb;stroke:#000;stroke-width:8.03px;"/><circle cx="700" cy="300" r="20" style="fill:#ebebeb;stroke:#000;stroke-width:8.03px;"/><circle cx="900" cy="100" r="20" style="fill:#ebebeb;stroke:#000;stroke-width:8.03px;"/><circle cx="1300" cy="700" r="20" style="fill:#ebebeb;stroke:#000;stroke-width:8.03px;"/><circle cx="100" cy="100" r="20" style="fill:#ebebeb;stroke:#000;stroke-width:8.03px;"/><circle cx="300" cy="300" r="20" style="fill:#ebebeb;stroke:#000;stroke-width:8.03px;"/><circle cx="700" cy="500" r="20" style="fill:#ebebeb;stroke:#000;stroke-width:8.03px;"/><circle cx="500" cy="500" r="20" style="fill:#ebebeb;stroke:#000;stroke-width:8.03px;"/><circle cx="1100" cy="300" r="20" style="fill:#ebebeb;stroke:#000;stroke-width:8.03px;"/><circle cx="900" cy="700" r="20" style="fill:#ebebeb;stroke:#000;stroke-width:8.03px;"/><circle cx="300" cy="700" r="20" style="fill:#ebebeb;stroke:#000;stroke-width:8.03px;"/><circle cx="500" cy="700" r="20" style="fill:#ebebeb;stroke:#000;stroke-width:8.03px;"/><circle cx="100" cy="700" r="20" style="fill:#ebebeb;stroke:#000;stroke-width:8.03px;"/><circle cx="1100" cy="700" r="20" style="fill:#ebebeb;stroke:#000;stroke-width:8.03px;"/><circle cx="1100" cy="1100" r="20" style="fill:#ebebeb;stroke:#000;stroke-width:8.03px;"/><circle cx="700" cy="900" r="20" style="fill:#ebebeb;stroke:#000;stroke-width:8.03px;"/><circle cx="500" cy="900" r="20" style="fill:#ebebeb;stroke:#000;stroke-width:8.03px;"/><circle cx="700" cy="1100" r="20" style="fill:#ebebeb;stroke:#000;stroke-width:8.03px;"/><circle cx="1300" cy="1300" r="20" style="fill:#ebebeb;stroke:#000;stroke-width:8.03px;"/><circle cx="300" cy="1100" r="20" style="fill:#ebebeb;stroke:#000;stroke-width:8.03px;"/><circle cx="100" cy="1300" r="20" style="fill:#ebebeb;stroke:#000;stroke-width:8.03px;"/><circle cx="700" cy="1300" r="20" style="fill:#ebebeb;stroke:#000;stroke-width:8.03px;"/><circle cx="900" cy="900" r="20" style="fill:#ebebeb;stroke:#000;stroke-width:8.03px;"/></svg>

<?xml version="1.0" encoding="UTF-8" standalone="no"?>
<!DOCTYPE svg PUBLIC "-//W3C//DTD SVG 1.1//EN" "http://www.w3.org/Graphics/SVG/1.1/DTD/svg11.dtd">
<svg width="100%" height="100%" viewBox="0 0 1400 1400" version="1.1" xmlns="http://www.w3.org/2000/svg" xmlns:xlink="http://www.w3.org/1999/xlink" xml:space="preserve" xmlns:serif="http://www.serif.com/" style="fill-rule:evenodd;clip-rule:evenodd;stroke-linecap:round;stroke-linejoin:round;stroke-miterlimit:1.5;">
    <rect x="900" y="300" width="200" height="200" style="fill:white;"/>
    <path d="M900,500L1300,500L1300,1300L100,1300L100,100L900,100L900,500Z" style="fill:white;stroke:black;stroke-width:8.03px;"/>
    <g transform="matrix(0.714286,0,0,0.714286,228.571,228.571)">
        <rect x="100" y="100" width="1120" height="1120" style="fill:none;stroke:black;stroke-width:11.25px;"/>
    </g>
    <g transform="matrix(0.428571,0,0,0.428571,457.143,457.143)">
        <rect x="100" y="100" width="933.333" height="933.333" style="fill:none;stroke:black;stroke-width:18.74px;"/>
    </g>
    <path d="M700,100L700,500" style="fill:none;stroke:black;stroke-width:8.03px;"/>
    <path d="M900,700L1300,700" style="fill:none;stroke:black;stroke-width:8.03px;"/>
    <path d="M700,900L700,1300" style="fill:none;stroke:black;stroke-width:8.03px;"/>
    <path d="M500,700L100,700" style="fill:none;stroke:black;stroke-width:8.03px;"/>
    <g transform="matrix(0.5,0,0,0.5,300,50)">
        <circle cx="800" cy="100" r="40" style="fill:rgb(235,235,235);stroke:black;stroke-width:16.06px;"/>
    </g>
    <g transform="matrix(0.5,0,0,0.5,900,450)">
        <circle cx="800" cy="100" r="40" style="fill:rgb(235,235,235);stroke:black;stroke-width:16.06px;"/>
    </g>
    <g transform="matrix(0.5,0,0,0.5,300,250)">
        <circle cx="800" cy="100" r="40" style="fill:rgb(235,235,235);stroke:black;stroke-width:16.06px;"/>
    </g>
    <g transform="matrix(0.5,0,0,0.5,500,50)">
        <circle cx="800" cy="100" r="40" style="fill:rgb(235,235,235);stroke:black;stroke-width:16.06px;"/>
    </g>
    <g transform="matrix(0.5,0,0,0.5,900,650)">
        <circle cx="800" cy="100" r="40" style="fill:rgb(235,235,235);stroke:black;stroke-width:16.06px;"/>
    </g>
    <g transform="matrix(0.5,0,0,0.5,-300,50)">
        <circle cx="800" cy="100" r="40" style="fill:rgb(235,235,235);stroke:black;stroke-width:16.06px;"/>
    </g>
    <g transform="matrix(0.5,0,0,0.5,-100,250)">
        <circle cx="800" cy="100" r="40" style="fill:rgb(235,235,235);stroke:black;stroke-width:16.06px;"/>
    </g>
    <g transform="matrix(0.5,0,0,0.5,300,450)">
        <circle cx="800" cy="100" r="40" style="fill:rgb(235,235,235);stroke:black;stroke-width:16.06px;"/>
    </g>
    <g transform="matrix(0.5,0,0,0.5,100,450)">
        <circle cx="800" cy="100" r="40" style="fill:rgb(235,235,235);stroke:black;stroke-width:16.06px;"/>
    </g>
    <g transform="matrix(0.5,0,0,0.5,700,250)">
        <circle cx="800" cy="100" r="40" style="fill:rgb(235,235,235);stroke:black;stroke-width:16.06px;"/>
    </g>
    <g transform="matrix(0.5,0,0,0.5,500,650)">
        <circle cx="800" cy="100" r="40" style="fill:rgb(235,235,235);stroke:black;stroke-width:16.06px;"/>
    </g>
    <g transform="matrix(0.5,0,0,0.5,-100,650)">
        <circle cx="800" cy="100" r="40" style="fill:rgb(235,235,235);stroke:black;stroke-width:16.06px;"/>
    </g>
    <g transform="matrix(0.5,0,0,0.5,100,650)">
        <circle cx="800" cy="100" r="40" style="fill:rgb(235,235,235);stroke:black;stroke-width:16.06px;"/>
    </g>
    <g transform="matrix(0.5,0,0,0.5,-300,650)">
        <circle cx="800" cy="100" r="40" style="fill:rgb(235,235,235);stroke:black;stroke-width:16.06px;"/>
    </g>
    <g transform="matrix(0.5,0,0,0.5,700,650)">
        <circle cx="800" cy="100" r="40" style="fill:rgb(235,235,235);stroke:black;stroke-width:16.06px;"/>
    </g>
    <g transform="matrix(0.5,0,0,0.5,700,1050)">
        <circle cx="800" cy="100" r="40" style="fill:rgb(235,235,235);stroke:black;stroke-width:16.06px;"/>
    </g>
    <g transform="matrix(0.5,0,0,0.5,300,850)">
        <circle cx="800" cy="100" r="40" style="fill:rgb(235,235,235);stroke:black;stroke-width:16.06px;"/>
    </g>
    <g transform="matrix(0.5,0,0,0.5,100,850)">
        <circle cx="800" cy="100" r="40" style="fill:rgb(235,235,235);stroke:black;stroke-width:16.06px;"/>
    </g>
    <g transform="matrix(0.5,0,0,0.5,300,1050)">
        <circle cx="800" cy="100" r="40" style="fill:rgb(235,235,235);stroke:black;stroke-width:16.06px;"/>
    </g>
    <g transform="matrix(0.5,0,0,0.5,900,1250)">
        <circle cx="800" cy="100" r="40" style="fill:rgb(235,235,235);stroke:black;stroke-width:16.06px;"/>
    </g>
    <g transform="matrix(0.5,0,0,0.5,-100,1050)">
        <circle cx="800" cy="100" r="40" style="fill:rgb(235,235,235);stroke:black;stroke-width:16.06px;"/>
    </g>
    <g transform="matrix(0.5,0,0,0.5,-300,1250)">
        <circle cx="800" cy="100" r="40" style="fill:rgb(235,235,235);stroke:black;stroke-width:16.06px;"/>
    </g>
    <g transform="matrix(0.5,0,0,0.5,300,1250)">
        <circle cx="800" cy="100" r="40" style="fill:rgb(235,235,235);stroke:black;stroke-width:16.06px;"/>
    </g>
    <g transform="matrix(0.5,0,0,0.5,500,850)">
        <circle cx="800" cy="100" r="40" style="fill:rgb(235,235,235);stroke:black;stroke-width:16.06px;"/>
    </g>
</svg>
